public/icons/VR.svg

<svg xmlns="http://www.w3.org/2000/svg" xmlns:xlink="http://www.w3.org/1999/xlink" width="500" zoomAndPan="magnify" viewBox="0 0 375 374.999991" height="500" preserveAspectRatio="xMidYMid meet" version="1.0"><defs><clipPath id="d912e360bb"><path d="M 60.824219 127.488281 L 314.324219 127.488281 L 314.324219 247 L 60.824219 247 Z M 60.824219 127.488281 " clip-rule="nonzero"/></clipPath></defs><rect x="-37.5" width="450" fill="#ffffff" y="-37.499999" height="449.999989" fill-opacity="1"/><rect x="-37.5" width="450" fill="#ffffff" y="-37.499999" height="449.999989" fill-opacity="1"/><g clip-path="url(#d912e360bb)"><path fill="#0284c7" d="M 303.210938 170.648438 L 306.933594 170.648438 C 310.867188 170.648438 314.070312 173.835938 314.070312 177.773438 L 314.070312 214.375 C 314.070312 216.265625 313.316406 218.078125 311.972656 219.417969 C 310.65625 220.753906 308.839844 221.503906 306.933594 221.503906 L 302.507812 221.503906 C 302.695312 220.59375 302.835938 219.667969 302.976562 218.726562 C 304.226562 210.203125 303.917969 200.382812 303.777344 189.546875 C 303.707031 183.03125 303.496094 176.585938 303.210938 170.648438 Z M 72.960938 170.648438 C 72.675781 176.585938 72.464844 183.03125 72.371094 189.546875 C 72.253906 200.382812 71.949219 210.203125 73.171875 218.726562 C 73.3125 219.667969 73.480469 220.59375 73.644531 221.503906 L 68.0625 221.503906 C 66.15625 221.503906 64.34375 220.753906 63.023438 219.417969 C 61.679688 218.078125 60.925781 216.265625 60.925781 214.375 L 60.925781 177.773438 C 60.925781 173.835938 64.128906 170.648438 68.0625 170.648438 Z M 215.847656 140.09375 L 165.785156 140.09375 L 165.785156 132.589844 C 165.785156 131.238281 166.304688 129.9375 167.269531 128.980469 C 168.234375 128.023438 169.53125 127.484375 170.871094 127.484375 L 210.738281 127.484375 C 212.105469 127.484375 213.402344 128.023438 214.367188 128.980469 C 215.308594 129.9375 215.847656 131.238281 215.847656 132.589844 Z M 271.398438 144.800781 C 285.882812 144.800781 297.796875 155.988281 298.480469 170.226562 C 298.761719 176.289062 299 182.90625 299.070312 189.601562 C 299.210938 200.164062 299.539062 209.738281 298.316406 218.046875 C 297.183594 225.894531 294.640625 232.574219 288.988281 237.769531 C 283.292969 242.984375 273.285156 245.273438 262.355469 246.148438 C 245.261719 247.511719 225.859375 245.207031 215.753906 243.546875 C 213.613281 243.195312 212.128906 241.820312 210.8125 240.070312 C 209.164062 237.882812 207.820312 235.121094 206.265625 232.425781 C 202.6875 226.179688 198.09375 220.335938 188.230469 220.335938 C 188.179688 220.335938 188.132812 220.335938 188.085938 220.335938 C 188.039062 220.335938 187.992188 220.335938 187.921875 220.335938 C 178.078125 220.335938 173.488281 226.179688 169.882812 232.425781 C 168.332031 235.121094 166.988281 237.882812 165.363281 240.070312 C 164.042969 241.820312 162.5625 243.195312 160.417969 243.546875 C 150.292969 245.207031 130.910156 247.511719 113.816406 246.148438 C 102.867188 245.273438 92.859375 242.984375 87.183594 237.769531 C 81.507812 232.574219 78.988281 225.894531 77.835938 218.046875 C 76.632812 209.738281 76.964844 200.164062 77.082031 189.601562 C 77.175781 182.90625 77.410156 176.289062 77.695312 170.226562 C 78.378906 155.988281 90.292969 144.800781 104.75 144.800781 Z M 271.398438 144.800781 " fill-opacity="1" fill-rule="evenodd"/></g></svg>

<svg xmlns="http://www.w3.org/2000/svg" width="500" height="500" viewBox="0 0 375 375" preserveAspectRatio="xMidYMid meet">
  <defs>
    <clipPath id="d912e360bb">
      <path d="M60.824 127.488h253.5V247H60.824z" />
    </clipPath>
  </defs>
  <g clip-path="url(#d912e360bb)">
    <path
      fill="#0284c7"
      d="M303.211 170.648h3.722a7.137 7.137 0 0 1 7.137 7.125v36.602a7.137 7.137 0 0 1-7.137 7.129h-4.426c.188-.91.329-1.836.469-2.778.75-8.523.442-18.344.301-29.18-.07-6.516-.281-12.961-.566-18.898Zm-230.25 0c-.285 5.938-.496 12.383-.59 18.898-.117 10.836-.422 20.656.801 29.18.14.941.308 1.867.472 2.777H68.062a7.137 7.137 0 0 1-7.137-7.129v-36.602a7.137 7.137 0 0 1 7.137-7.125Zm142.887-30.555h-50.062v-7.504c0-1.352.52-2.652 1.484-3.61.965-.957 2.262-1.496 3.602-1.496h39.867c1.367 0 2.664.539 3.629 1.496.942.957 1.48 2.258 1.48 3.61Zm55.55 4.707c14.484 0 26.398 11.188 27.082 25.426.281 6.062.52 12.68.59 19.375.14 10.563.469 20.137-.754 28.445-1.133 7.848-3.676 14.528-9.328 19.723-5.695 5.215-15.703 7.504-26.633 8.379-17.094 1.363-36.496-.941-46.602-2.602-2.14-.351-3.625-1.726-4.941-3.476-1.648-2.188-2.992-4.949-4.547-7.645-3.578-6.246-8.172-12.09-18.035-12.09h-.094c-.047 0-.094 0-.164 0-9.844 0-14.434 5.844-18.04 12.09-1.55 2.696-2.895 5.457-4.52 7.645-1.32 1.75-2.8 3.125-4.945 3.476-10.125 1.66-29.508 3.965-46.602 2.602-10.949-.875-20.957-3.164-26.633-8.379-5.676-5.195-8.195-11.875-9.348-19.723-1.203-8.308-.87-17.882-.75-28.445.093-6.695.328-13.312.613-19.375.683-14.238 12.598-25.426 27.055-25.426Z"
    />
  </g>
</svg>
